X:107
T: WENN I ZUM BRUENNLE GEH
N: E0704
O: Europa, Mitteleuropa, Deutschland, Schwaben
R: Liebes - Lied, Leid, Klage
M: 3/4
L: 1/8
K: F
 | A2A2A2 | A3GG2 |
B2B2B2 | B3AA2 |
c2dcBA | d3dc2 |
A2A2cB | G4z2 |
G2GdcB | B3AB2 |
B2f2ed | c3BA2 |
F2F2GB | A4z2 |
c2cdcB | A4z2

@@@ Tune index: 4420
